X:1
T:Ave maris stella
T:mel.: Caspar Ett (1788 - 1847) tune: St. Martin (Canta Sacra, 1840)
T:Ave maris stella
C:mel.: Caspar Ett (1788 - 1847)
C:tune: St. Martin
C:(Canta Sacra, 1840)
%%score { ( 1 2 ) | ( 3 4 ) }
L:1/8
Q:1/4=100
M:4/4
K:Eb
V:1 treble nm="P1"
V:2 treble 
V:3 bass 
V:4 bass 
V:1
!mf!"^Moderato" B2 G2 A2 G2 | F4 E4 |!<(! E2 G2 B2!<)! B2 | c4 B4 |!<(! c2 d2 e2!<)! d2 | %5
w: 6. tam praes- ta|pu- ram,|i- ter pa- ra|tu- tum,|6. vi- den- tes|
w: 1. ve, ma- ris|stel- la,|De- i Ma- ter|al- ma,|1. que sem- per|
w: 2. mens il- lud|"A- ve"|Ga- bri- e- lis|o- re,|2. da nos in|
w: 3. ve vin- cla|re- is,|pro- fer lu- men|cae- cis,|3. la nos- tra|
w: 4. tra~te es- se|ma- trem:|su- mat per te|pre- ces,|4. pro no- bis|
w: 5. go sin- gu-|la- ris,|in- ter om- nes|mi- tis,|5. cul- pis so-|
 c4!mf! B4 | B2 c2 A2 G2 |"^rit.""^rit." F4 !fermata!E4 ||[M:3/4]!f! (E2 G2) B2 |[M:4/4] g4 e4 | %10
w: Je- sum,|sem- per col- lae-|te- mur.|||
w: Vir- go,|fe- lix coe- li|por- ta.|A- * men,|a- men,|
w: pa- ce,|mu- tans He- vae|no- men.|||
w: pel- le,|bo- na cun- cta|pos- ce.|||
w: na- tus,|tu- lit es- se|tu- us.|||
w: lu- tos|mi- tes fac et|cas- tos.|||
[M:3/4]!ff! (f2 e2"^-" d2) | !fermata!e6 |] %12
w: ||
w: a- * *|men.|
w: ||
w: ||
w: ||
w: ||
V:2
 E2 E2 E2 E2 | (E2 D2) B,4 | E2 E2 F2 F2 | (F2!>(! E2)!>)! D4 | E2 F2 G2 F2 | (F2!>(! E2)!>)! D4 | %6
 E2 E2 CD E2 | (ED/C/ D2) B,4 ||[M:3/4] (E2 G2) G2 |[M:4/4] B4 G4 |[M:3/4] (A2 G2 F2) | G6 |] %12
V:3
 G,2 B,2 A,2 B,2 | C2 B,A, G,4 | G,2 C2 D2 B,2 | =A,4 B,4 | C2 =B,2 C2 _B,2 | =A,4 B,4 | %6
 G,2 G,2 _A,2 B,2 | B,3 A, G,4 ||[M:3/4] E,2 G,2 B,2 |[M:4/4] E4 B,4 |[M:3/4] B,6 | B,6 |] %12
V:4
 E,2 E,2 C,2 B,,2 | A,,2 B,,2 E,4 | E,2 C,2 B,,2 D,2 | F,4 B,,4 | A,2 G,2 C,2 D,E, | F,4 B,,4 | %6
 E,2 C,2 F,2 G,A, | B,2 B,,2 !fermata!E,4 ||[M:3/4] E,4 E,2 |[M:4/4] E,4 E,4 |[M:3/4] B,,6 | %11
 !fermata!E,6 |] %12

